X:11005
T:Kesh, The
R:Jig
C:Trad.
O:Ireland
Z:Paul Hardy's Session Tunebook 2015 (see www.paulhardy.net). Creative Commons cc by-nc-sa licenced.
M:6/8
L:1/8
Q:3/8=100
K:G
"G"G2G GAB|"C"A2A "D"ABd|"G"edd gdd|"C"edB "D"dBA|
"G"G2G GAB|"D"A2A ABd|"C"edd "G"gdB|"D"AGF "G"G3:|
|:"G"B2B dBd|"C"ege "G"dBG|B2B dBG|"D"ABA AGA|
"G"B2B dBd|"C"ege "G"dBd|"C"gfg "D"aga|"C"bgg "G"g3:|

